X:1
T:Erika Levine
M:4/4
L:1/8
K:C
 z4 z2 G2| EE EE G2 G2| FF FF A4| G2 GG C2 E2| DD D2 G,2 GG| E2 EE GG G2|\
 FF F2 A3 A| AA Ac GG GG| FF FG EE GG|
